src/assets/images/icons/home-icon.svg

<svg width="18" height="20" viewBox="0 0 18 20" fill="none" xmlns="http://www.w3.org/2000/svg">
<path d="M2.25 17.7143H5.625V12C5.625 11.6762 5.733 11.4049 5.949 11.1863C6.165 10.9676 6.432 10.8579 6.75 10.8571H11.25C11.5687 10.8571 11.8361 10.9669 12.0521 11.1863C12.2681 11.4057 12.3757 11.6769 12.375 12V17.7143H15.75V7.42857L9 2.28571L2.25 7.42857V17.7143ZM0 17.7143V7.42857C0 7.06666 0.0798748 6.72381 0.239625 6.4C0.399375 6.07619 0.6195 5.80952 0.9 5.6L7.65 0.457143C8.04375 0.152381 8.49375 0 9 0C9.50625 0 9.95625 0.152381 10.35 0.457143L17.1 5.6C17.3812 5.80952 17.6017 6.07619 17.7615 6.4C17.9212 6.72381 18.0007 7.06666 18 7.42857V17.7143C18 18.3429 17.7795 18.8811 17.3385 19.3291C16.8975 19.7771 16.368 20.0008 15.75 20H11.25C10.9312 20 10.6642 19.8903 10.449 19.6709C10.2337 19.4514 10.1257 19.1802 10.125 18.8571V13.1429H7.875V18.8571C7.875 19.1809 7.767 19.4526 7.551 19.672C7.335 19.8914 7.068 20.0008 6.75 20H2.25C1.63125 20 1.10175 19.7764 0.6615 19.3291C0.22125 18.8819 0.00075 18.3436 0 17.7143Z" fill="#CCD6F6"/>
</svg>

<svg xmlns="http://www.w3.org/2000/svg" width="18" height="20" fill="none"><path fill="#CCD6F6" d="M2.25 17.714h3.375V12c0-.324.108-.595.324-.814.216-.218.483-.328.801-.329h4.5c.319 0 .586.11.802.33.216.219.324.49.323.813v5.714h3.375V7.43L9 2.286 2.25 7.429v10.285Zm-2.25 0V7.43A2.295 2.295 0 0 1 .9 5.6L7.65.457A2.146 2.146 0 0 1 9 0c.506 0 .956.152 1.35.457L17.1 5.6a2.285 2.285 0 0 1 .9 1.829v10.285a2.22 2.22 0 0 1-.662 1.615c-.44.448-.97.672-1.588.671h-4.5c-.319 0-.586-.11-.801-.33a1.12 1.12 0 0 1-.324-.813v-5.714h-2.25v5.714c0 .324-.108.596-.324.815-.216.22-.483.329-.801.328h-4.5a2.149 2.149 0 0 1-1.589-.67A2.223 2.223 0 0 1 0 17.713Z"/></svg>
